X: 6
T: The High Road To Linton
R: reel
M: 4/4
L: 1/8
K: Amaj
e |: "A"ceef a2 ae       |"D"f2 fe "A"a2 ae|"A"ceef a2 ae    |"D"faec "E"B2 A2  :|
  |: "A"cee=g "D"fddf    |"A"ecce "E"fBBf  |"A"cee=g "D"fddf | "A"ecac "E"B2 A2 :|
  |: "A"!>!a2 !>!a2 ef a2|efae faef        |!>!a2 !>!a2 efae | "D"faec "E"B2 A2 :|
  |: "A"c3 c "D"defd     |"A"c2 ec "E"BcdB |"A"c2 ec "D"defg |"A"afec "E"B2 A2  :|
